lib/assets/icons/svg/filled-action-add.svg

<svg viewBox="0 0 24 24" xmlns="http://www.w3.org/2000/svg">
  <path  d="M 12 19 C 11.448 19 11 18.552 11 18 L 11 13 L 6 13 C 5.23 13 4.749 12.167 5.134 11.5 C 5.313 11.191 5.643 11 6 11 L 11 11 L 11 6 C 11 5.23 11.833 4.749 12.5 5.134 C 12.809 5.313 13 5.643 13 6 L 13 11 L 18 11 C 18.77 11 19.251 11.833 18.866 12.5 C 18.687 12.809 18.357 13 18 13 L 13 13 L 13 18 C 13 18.552 12.552 19 12 19 Z"/>
</svg>

<svg xmlns="http://www.w3.org/2000/svg" viewBox="0 0 24 24"><path d="M12 19a1 1 0 0 1-1-1v-5H6a1 1 0 1 1 0-2h5V6a1 1 0 1 1 2 0v5h5a1 1 0 1 1 0 2h-5v5a1 1 0 0 1-1 1z"/></svg>
